X: 125
T: Gentleman Soldier
M:6/8
R:jig
L:1/8
Z:added by Alf warnock alf0@rogers.com - www.alfwarnock.info/alfs
K:D
d2e|"D"f2f A2B|d2e f2d|"A7"efe d2c|"D"d3-d2e|
"D"f2f A2B|d2e f2d|"A7"efe d2c|"D"d3-d2e|
"D"f2f f2d|"A7"e2e f2e|"G"d2d dcB|"A7"A3-A2a|
"D"a2A A2B|"Bm"d2e f2d|"A7"efe d2c|"D"d6|
%%text Chorus
"D"f2f fed|"A7"efe e2f/e/|"G"d2d dcB|"A7"A3-A2f|
"D"a2A A2A|"Bm"d2e f2d|"A7"efe d2c|"D"d6|]

